32x32/apps/preferences-desktop-gaming.svg

<?xml version="1.0" encoding="UTF-8" standalone="no"?>
<!-- Created with Inkscape (http://www.inkscape.org/) -->

<svg
   xmlns:dc="http://purl.org/dc/elements/1.1/"
   xmlns:cc="http://creativecommons.org/ns#"
   xmlns:rdf="http://www.w3.org/1999/02/22-rdf-syntax-ns#"
   xmlns:svg="http://www.w3.org/2000/svg"
   xmlns="http://www.w3.org/2000/svg"
   xmlns:sodipodi="http://sodipodi.sourceforge.net/DTD/sodipodi-0.dtd"
   xmlns:inkscape="http://www.inkscape.org/namespaces/inkscape"
   width="32"
   height="32"
   viewBox="0 0 32 32"
   version="1.1"
   id="svg8"
   inkscape:version="0.92.3 (2405546, 2018-03-11)"
   sodipodi:docname="preferences-desktop-gaming.svg">
  <title
     id="title7895">Antu icon Theme</title>
  <defs
     id="defs2">
    <style
       type="text/css"
       id="current-color-scheme">
      .ColorScheme-Text {
        color:#122036;
      }
      </style>
    <style
       type="text/css"
       id="current-color-scheme-2">
      .ColorScheme-Text {
        color:#122036;
      }
      </style>
    <style
       type="text/css"
       id="current-color-scheme-0">
      .ColorScheme-Text {
        color:#122036;
      }
      </style>
    <style
       type="text/css"
       id="current-color-scheme-27">
      .ColorScheme-Text {
        color:#122036;
      }
      </style>
    <style
       id="current-color-scheme-5"
       type="text/css">
      .ColorScheme-Text {
        color:#122036;
      }
      </style>
    <style
       id="current-color-scheme-53"
       type="text/css">
      .ColorScheme-Text {
        color:#122036;
      }
      </style>
    <style
       id="current-color-scheme-535"
       type="text/css">
      .ColorScheme-Text {
        color:#122036;
      }
      </style>
    <style
       type="text/css"
       id="current-color-scheme-5-6">
      .ColorScheme-Text {
        color:#122036;
      }
      </style>
    <style
       id="current-color-scheme-70"
       type="text/css">
      .ColorScheme-Text {
        color:#122036;
      }
      </style>
    <style
       type="text/css"
       id="current-color-scheme-5-9">
      .ColorScheme-Text {
        color:#122036;
      }
      </style>
    <style
       type="text/css"
       id="current-color-scheme-2-0">
      .ColorScheme-Text {
        color:#122036;
      }
      </style>
    <style
       type="text/css"
       id="current-color-scheme-1">
      .ColorScheme-Text {
        color:#122036;
      }
      </style>
    <style
       id="current-color-scheme-10"
       type="text/css">
      .ColorScheme-Text {
        color:#122036;
      }
      </style>
    <style
       type="text/css"
       id="current-color-scheme-0-9">
      .ColorScheme-Text {
        color:#122036;
      }
      </style>
    <style
       type="text/css"
       id="current-color-scheme-26">
      .ColorScheme-Text {
        color:#122036;
      }
      </style>
    <style
       type="text/css"
       id="current-color-scheme-7">
      .ColorScheme-Text {
        color:#122036;
      }
      </style>
  </defs>
  <sodipodi:namedview
     id="base"
     pagecolor="#ffffff"
     bordercolor="#666666"
     borderopacity="1.0"
     inkscape:pageopacity="0.0"
     inkscape:pageshadow="2"
     inkscape:zoom="16"
     inkscape:cx="9.84592"
     inkscape:cy="15.084242"
     inkscape:document-units="px"
     inkscape:current-layer="layer1"
     showgrid="false"
     units="px"
     inkscape:window-width="1874"
     inkscape:window-height="1141"
     inkscape:window-x="46"
     inkscape:window-y="30"
     inkscape:window-maximized="1"
     objecttolerance="10"
     gridtolerance="10"
     guidetolerance="10"
     showguides="false">
    <inkscape:grid
       type="xygrid"
       id="grid7897"
       empspacing="4" />
  </sodipodi:namedview>
  <metadata
     id="metadata5">
    <rdf:RDF>
      <cc:Work
         rdf:about="">
        <dc:format>image/svg+xml</dc:format>
        <dc:type
           rdf:resource="http://purl.org/dc/dcmitype/StillImage" />
        <dc:title>Antu icon Theme</dc:title>
      </cc:Work>
    </rdf:RDF>
  </metadata>
  <g
     inkscape:label="Capa 1"
     inkscape:groupmode="layer"
     id="layer1"
     transform="translate(0,-282.64999)">
    <g
       id="g1535"
       transform="translate(18,-4)">
      <path
         style="opacity:0.98999999;fill:#d72f47;fill-opacity:0.98039216;stroke:none;stroke-width:0.29999998;stroke-miterlimit:4;stroke-dasharray:none;stroke-opacity:1"
         d="m 5.999964,287.65001 h 4.00007 C 12.216016,287.65001 14,289.43402 14,291.65 v 21.99998 c 0,2.21601 -1.783984,3.99999 -3.999966,3.99999 H 5.999964 2 v -30 z"
         id="rect4515"
         inkscape:connector-curvature="0"
         sodipodi:nodetypes="csssscccc" />
      <path
         style="opacity:0.98999999;fill:#fe7688;fill-opacity:1;stroke:none;stroke-width:0.29999998;stroke-miterlimit:4;stroke-dasharray:none;stroke-opacity:1"
         d="m 5.999999,288.64996 h 3.999999 c 1.662001,0 3.000001,1.33803 3.000001,3 v 22.00002 c 0,1.66197 -1.338,3 -3.000001,3 H 5.999999 3 v -28.00002 z"
         id="rect4533"
         inkscape:connector-curvature="0"
         sodipodi:nodetypes="csssscccc" />
      <path
         style="opacity:0.98999999;fill:#4f92db;fill-opacity:1;stroke:none;stroke-width:0.29999998;stroke-miterlimit:4;stroke-dasharray:none;stroke-opacity:1"
         d="m -9.9999645,287.65005 h -4.0000705 c -2.215981,0 -3.999965,1.78401 -3.999965,3.99998 v 21.99995 c 0,2.21605 1.783984,4.00003 3.999965,4.00003 H -9.9999645 -6 v -30 z"
         id="rect4515-3"
         inkscape:connector-curvature="0"
         sodipodi:nodetypes="csssscccc" />
      <path
         style="opacity:0.98999999;fill:#5ac0ff;fill-opacity:1;stroke:none;stroke-width:0.29999998;stroke-miterlimit:4;stroke-dasharray:none;stroke-opacity:1"
         d="m -9.9999996,288.65 h -3.9999994 c -1.662,0 -3,1.33802 -3,3 v 21.99998 c 0,1.66201 1.338,3 3,3 H -9.9999996 -7 V 288.65 Z"
         id="rect4533-6"
         inkscape:connector-curvature="0"
         sodipodi:nodetypes="csssscccc" />
      <path
         style="opacity:1;fill:#000000;fill-opacity:0.67924529;stroke:none;stroke-width:0.29999998;stroke-miterlimit:4;stroke-dasharray:none;stroke-opacity:1"
         d="M 6 5 L 6 6 L 9 6 L 9 5 L 6 5 z M 6 9 C 4.338 9 3 10.33799 3 12 C 3 13.66201 4.338 15 6 15 C 7.662 15 9 13.66201 9 12 C 9 10.33799 7.662 9 6 9 z M 6 10 C 7.108 10 8 10.892 8 12 C 8 13.10797 7.108 14 6 14 C 4.892 14 4 13.10797 4 12 C 4 10.892 4.892 10 6 10 z M 6 18 C 5.446 18 5 18.446 5 19 C 5 19.554 5.446 20 6 20 C 6.554 20 7 19.554 7 19 C 7 18.446 6.554 18 6 18 z M 4 20 C 3.446 20 3 20.446 3 21 C 3 21.554 3.446 22 4 22 C 4.554 22 5 21.554 5 21 C 5 20.446 4.554 20 4 20 z M 8 20 C 7.446 20 7 20.446 7 21 C 7 21.554 7.446 22 8 22 C 8.554 22 9 21.554 9 21 C 9 20.446 8.554 20 8 20 z M 6 22 C 5.446 22 5 22.44599 5 23 C 5 23.554 5.446 24 6 24 C 6.554 24 7 23.554 7 23 C 7 22.44599 6.554 22 6 22 z M 8 26 L 8 28 L 10 28 L 10 26 L 8 26 z "
         transform="translate(-18,286.64999)"
         id="rect4577" />
      <path
         inkscape:connector-curvature="0"
         style="opacity:0.98999999;fill:#36404d;fill-opacity:1;stroke:none;stroke-width:0.29999998;stroke-miterlimit:4;stroke-dasharray:none;stroke-opacity:1"
         d="m -6,287.64997 h 7.999999 v 30 H -6 Z"
         id="rect4536" />
      <path
         inkscape:connector-curvature="0"
         style="opacity:0.98999999;fill:#4b6477;fill-opacity:1;stroke:none;stroke-width:0.29999998;stroke-miterlimit:4;stroke-dasharray:none;stroke-opacity:1"
         d="m -6,288.64996 h 8 v 28.00002 h -8 z"
         id="rect4538" />
      <path
         style="opacity:1;fill:#260b0b;fill-opacity:0.8018868;stroke:none;stroke-width:0.29999995;stroke-miterlimit:4;stroke-dasharray:none;stroke-opacity:1"
         d="M 24 4 L 24 5 L 23 5 L 23 6 L 24 6 L 24 7 L 25 7 L 25 6 L 26 6 L 26 5 L 25 5 L 25 4 L 24 4 z M 26 9 C 25.446001 9 25 9.446 25 10 C 25 10.554 25.446001 11 26 11 C 26.554001 11 27 10.554 27 10 C 27 9.446 26.554001 9 26 9 z M 24 11 C 23.446 11 23 11.446 23 12 C 23 12.55397 23.446 13 24 13 C 24.553999 13 25 12.55397 25 12 C 25 11.446 24.553999 11 24 11 z M 28 11 C 27.446 11 27 11.446 27 12 C 27 12.55397 27.446 13 28 13 C 28.553999 13 29 12.55397 29 12 C 29 11.446 28.553999 11 28 11 z M 26 13 C 25.446001 13 25 13.44599 25 14 C 25 14.554 25.446001 15 26 15 C 26.554001 15 27 14.554 27 14 C 27 13.44599 26.554001 13 26 13 z M 26 18 C 24.338 18 23 19.33799 23 21 C 23 22.66197 24.338 24 26 24 C 27.662 24 29 22.66197 29 21 C 29 19.33799 27.662 18 26 18 z M 26 19 C 27.107999 19 28 19.892 28 21 C 28 22.10797 27.107999 23 26 23 C 24.892001 23 24 22.10797 24 21 C 24 19.892 24.892001 19 26 19 z M 23 26 C 22.446001 26 22 26.446 22 27 C 22 27.55397 22.446001 28 23 28 C 23.554001 28 24 27.55397 24 27 C 24 26.446 23.554001 26 23 26 z "
         transform="translate(-18,286.64999)"
         id="rect4577-5" />
      <path
         id="path4524"
         d="m -3.5,298.65 c -0.277002,0 -0.5,0.22299 -0.5,0.5 0,0.27704 0.223,0.5 0.5,0.5 0.277002,0 0.5,-0.223 0.5,-0.5 0,-0.27704 -0.223,-0.5 -0.5,-0.5 z m 3,0 c -0.277002,0 -0.5,0.22299 -0.5,0.5 0,0.27704 0.223,0.5 0.5,0.5 0.277002,0 0.5,-0.223 0.5,-0.5 0,-0.27704 -0.223,-0.5 -0.5,-0.5 z"
         style="opacity:1;fill:#d7dadc;fill-opacity:1;stroke:none;stroke-width:0.29999998;stroke-miterlimit:4;stroke-dasharray:none;stroke-opacity:1"
         inkscape:connector-curvature="0" />
      <path
         inkscape:connector-curvature="0"
         id="path4518"
         d="m -3.500001,300.64992 c -0.277002,0 -0.5,0.22299 -0.5,0.50003 0,0.27704 0.222999,0.49999 0.5,0.49999 0.277001,0 0.5,-0.22299 0.5,-0.49999 0,-0.27704 -0.223,-0.50003 -0.5,-0.50003 z"
         style="opacity:1;fill:#36404d;fill-opacity:1;stroke:none;stroke-width:0.29999998;stroke-miterlimit:4;stroke-dasharray:none;stroke-opacity:1" />
      <path
         inkscape:connector-curvature="0"
         id="path4516"
         d="m -0.500001,300.64992 c -0.277002,0 -0.5,0.22299 -0.5,0.50003 0,0.27704 0.222999,0.49999 0.5,0.49999 0.277001,0 0.5,-0.22299 0.5,-0.49999 0,-0.27704 -0.223,-0.50003 -0.5,-0.50003 z"
         style="opacity:1;fill:#36404d;fill-opacity:1;stroke:none;stroke-width:0.29999998;stroke-miterlimit:4;stroke-dasharray:none;stroke-opacity:1" />
      <path
         inkscape:connector-curvature="0"
         id="path4514"
         d="m -3.500001,302.64993 c -0.277002,0 -0.5,0.22299 -0.5,0.5 0,0.27703 0.222999,0.49999 0.5,0.49999 0.277001,0 0.5,-0.22299 0.5,-0.49999 0,-0.27704 -0.223,-0.5 -0.5,-0.5 z"
         style="opacity:1;fill:#36404d;fill-opacity:1;stroke:none;stroke-width:0.29999998;stroke-miterlimit:4;stroke-dasharray:none;stroke-opacity:1" />
      <path
         inkscape:connector-curvature="0"
         id="path4512"
         d="m -0.500001,302.64993 c -0.277002,0 -0.5,0.22299 -0.5,0.5 0,0.27703 0.222999,0.49999 0.5,0.49999 0.277001,0 0.5,-0.22299 0.5,-0.49999 0,-0.27704 -0.223,-0.5 -0.5,-0.5 z"
         style="opacity:1;fill:#36404d;fill-opacity:1;stroke:none;stroke-width:0.29999998;stroke-miterlimit:4;stroke-dasharray:none;stroke-opacity:1" />
      <path
         inkscape:connector-curvature="0"
         id="path4510"
         d="m -3.500001,304.64994 c -0.277002,0 -0.5,0.223 -0.5,0.5 0,0.27704 0.222999,0.49999 0.5,0.49999 0.277001,0 0.5,-0.22299 0.5,-0.49999 0,-0.27704 -0.223,-0.5 -0.5,-0.5 z"
         style="opacity:1;fill:#363f4d;fill-opacity:0.99215686;stroke:none;stroke-width:0.29999998;stroke-miterlimit:4;stroke-dasharray:none;stroke-opacity:1" />
      <path
         inkscape:connector-curvature="0"
         id="rect4695"
         d="m -0.500001,304.64994 c -0.277002,0 -0.5,0.223 -0.5,0.5 0,0.27704 0.222999,0.49999 0.5,0.49999 0.277001,0 0.5,-0.22299 0.5,-0.49999 0,-0.27704 -0.223,-0.5 -0.5,-0.5 z"
         style="opacity:1;fill:#36404d;fill-opacity:1;stroke:none;stroke-width:0.29999998;stroke-miterlimit:4;stroke-dasharray:none;stroke-opacity:1" />
      <path
         style="opacity:1;fill:#000000;fill-opacity:0.48113212;stroke:none;stroke-width:0.40000001;stroke-miterlimit:4;stroke-dasharray:none;stroke-opacity:1"
         d="m 8,305.64999 c -1.108,0 -2,0.89202 -2,2.00001 0,1.10797 0.892,1.99998 2,1.99998 1.108,0 2,-0.89201 2,-1.99998 0,-1.108 -0.892,-2.00001 -2,-2.00001 z"
         id="path4872-6"
         inkscape:connector-curvature="0"
         sodipodi:nodetypes="sssss" />
    </g>
    <path
       style="opacity:1;fill:#000000;fill-opacity:0.48113212;stroke:none;stroke-width:0.40000001;stroke-miterlimit:4;stroke-dasharray:none;stroke-opacity:1"
       d="m 6,292.64999 c -1.108,0 -2,0.89202 -2,2.00001 0,1.10797 0.892,1.99998 2,1.99998 1.108,0 2,-0.89201 2,-1.99998 0,-1.108 -0.892,-2.00001 -2,-2.00001 z"
       id="path4872"
       inkscape:connector-curvature="0"
       sodipodi:nodetypes="sssss" />
  </g>
</svg>

<svg height="32" width="32" xmlns="http://www.w3.org/2000/svg">
    <path d="M24 1h4c2.216 0 4 1.784 4 4v22c0 2.216-1.784 4-4 4h-8V1z" fill="#d72f47" fill-opacity=".98" opacity=".99"/>
    <path d="M24 2h4c1.662 0 3 1.338 3 3v22c0 1.662-1.338 3-3 3h-7V2z" fill="#fe7688" opacity=".99"/>
    <path d="M8 1H4C1.784 1 0 2.784 0 5v22c0 2.216 1.784 4 4 4h8V1z" fill="#4f92db" opacity=".99"/>
    <path d="M8 2H4C2.338 2 1 3.338 1 5v22c0 1.662 1.338 3 3 3h7V2z" fill="#5ac0ff" opacity=".99"/>
    <path d="M6 5v1h3V5zm0 4c-1.662 0-3 1.338-3 3s1.338 3 3 3 3-1.338 3-3-1.338-3-3-3zm0 1c1.108 0 2 .892 2 2s-.892 2-2 2-2-.892-2-2 .892-2 2-2zm0 8c-.554 0-1 .446-1 1s.446 1 1 1 1-.446 1-1-.446-1-1-1zm-2 2c-.554 0-1 .446-1 1s.446 1 1 1 1-.446 1-1-.446-1-1-1zm4 0c-.554 0-1 .446-1 1s.446 1 1 1 1-.446 1-1-.446-1-1-1zm-2 2c-.554 0-1 .446-1 1s.446 1 1 1 1-.446 1-1-.446-1-1-1zm2 4v2h2v-2z" fill-opacity=".679"/>
    <path d="M12 1h8v30h-8z" fill="#36404d" opacity=".99"/>
    <path d="M12 2h8v28h-8z" fill="#4b6477" opacity=".99"/>
    <path d="M24 4v1h-1v1h1v1h1V6h1V5h-1V4zm2 5c-.554 0-1 .446-1 1s.446 1 1 1 1-.446 1-1-.446-1-1-1zm-2 2c-.554 0-1 .446-1 1s.446 1 1 1 1-.446 1-1-.446-1-1-1zm4 0c-.554 0-1 .446-1 1s.446 1 1 1 1-.446 1-1-.446-1-1-1zm-2 2c-.554 0-1 .446-1 1s.446 1 1 1 1-.446 1-1-.446-1-1-1zm0 5c-1.662 0-3 1.338-3 3s1.338 3 3 3 3-1.338 3-3-1.338-3-3-3zm0 1c1.108 0 2 .892 2 2s-.892 2-2 2-2-.892-2-2 .892-2 2-2zm-3 7c-.554 0-1 .446-1 1s.446 1 1 1 1-.446 1-1-.446-1-1-1z" fill="#260b0b" fill-opacity=".802"/>
    <path d="M14.5 12a.499.499 0 1 0 0 1 .499.499 0 1 0 0-1zm3 0a.499.499 0 1 0 0 1 .499.499 0 1 0 0-1z" fill="#d7dadc"/>
    <g fill="#36404d">
        <path d="M14.5 14a.499.499 0 1 0 0 1 .499.499 0 1 0 0-1zM17.5 14a.499.499 0 1 0 0 1 .499.499 0 1 0 0-1zM14.5 16a.499.499 0 1 0 0 1 .499.499 0 1 0 0-1zM17.5 16a.499.499 0 1 0 0 1 .499.499 0 1 0 0-1z"/>
    </g>
    <path d="M14.5 18a.499.499 0 1 0 0 1 .499.499 0 1 0 0-1z" fill="#363f4d" fill-opacity=".992"/>
    <path d="M17.5 18a.499.499 0 1 0 0 1 .499.499 0 1 0 0-1z" fill="#36404d"/>
    <path d="M26 19c-1.108 0-2 .892-2 2s.892 2 2 2 2-.892 2-2-.892-2-2-2zM6 10c-1.108 0-2 .892-2 2s.892 2 2 2 2-.892 2-2-.892-2-2-2z" fill-opacity=".481"/>
</svg>
